X: 17996
T: Hughie Travers'
R: reel
M: 4/4
K: Adorian
A2 dA eAdA|A2 BG AGEG|A2 dA eAde|gedB GBdB|
A2 dA eAdA|A2 BG AGEG|cBcA BGdB|GAAG EF G2|
Bdef gedB|GBAG GE D2|Bdef g3 b|a2 fa gfed|
Bdef gedB|GBAG GE D2|cBcA BGdB|GAAG EFGB|

